dist/svg/broom-fill.svg

<svg xmlns="http://www.w3.org/2000/svg" viewBox="0 0 24 24"><path d="M19.08 3.861c-.088.039-1.621 1.542-4.12 4.039l-3.98 3.976-.762-.753c-.673-.664-.798-.77-1.062-.897a1.72 1.72 0 0 0-1.52-.004c-.248.125-3.527 2.469-3.765 2.69a2 2 0 0 0-.285.342c-.32.548-.293 1.379.061 1.869.07.098.312.366.538.597l.41.42 1.393-1.385c1.503-1.495 1.513-1.502 1.895-1.466a.7.7 0 0 1 .578.409c.23.46.215.483-1.412 2.112L5.661 17.2l.519.52c.285.286.537.52.56.52.022 0 .49-.451 1.04-1.003s1.049-1.028 1.108-1.06c.127-.067.459-.075.619-.014.36.136.548.611.392.986-.04.095-.427.514-1.083 1.173l-1.02 1.026.485.465c.545.522.809.681 1.252.755a1.72 1.72 0 0 0 1.41-.415c.215-.198 2.61-3.529 2.78-3.866.24-.476.236-1.004-.012-1.525-.102-.215-.251-.389-.885-1.032l-.762-.773 3.964-3.969c2.18-2.182 3.996-4.031 4.035-4.108.098-.19.095-.507-.004-.677a1.2 1.2 0 0 0-.23-.256c-.183-.149-.521-.187-.749-.086"/></svg>

<svg fill="none" xmlns="http://www.w3.org/2000/svg" viewBox="0 0 24 24"><path d="M19.080 3.861 C 18.992 3.900,17.459 5.403,14.960 7.900 L 10.980 11.876 10.218 11.123 C 9.545 10.459,9.420 10.353,9.156 10.226 C 8.662 9.989,8.101 9.987,7.636 10.222 C 7.388 10.347,4.109 12.691,3.871 12.912 C 3.768 13.009,3.639 13.163,3.586 13.254 C 3.266 13.802,3.293 14.633,3.647 15.123 C 3.717 15.221,3.959 15.489,4.185 15.720 L 4.595 16.140 5.988 14.755 C 7.491 13.260,7.501 13.253,7.883 13.289 C 8.142 13.314,8.338 13.453,8.461 13.698 C 8.691 14.158,8.676 14.181,7.049 15.810 L 5.661 17.200 6.180 17.720 C 6.465 18.006,6.717 18.240,6.740 18.240 C 6.762 18.240,7.230 17.789,7.780 17.237 C 8.330 16.686,8.829 16.209,8.888 16.177 C 9.015 16.110,9.347 16.102,9.507 16.163 C 9.867 16.299,10.055 16.774,9.899 17.149 C 9.859 17.244,9.472 17.663,8.816 18.322 L 7.796 19.348 8.281 19.813 C 8.826 20.335,9.090 20.494,9.533 20.568 C 10.031 20.650,10.578 20.489,10.943 20.153 C 11.158 19.955,13.553 16.624,13.723 16.287 C 13.963 15.811,13.959 15.283,13.711 14.762 C 13.609 14.547,13.460 14.373,12.826 13.730 L 12.064 12.957 16.028 8.988 C 18.208 6.806,20.024 4.957,20.063 4.880 C 20.161 4.690,20.158 4.373,20.059 4.203 C 20.015 4.129,19.912 4.014,19.829 3.947 C 19.646 3.798,19.308 3.760,19.080 3.861 " stroke="none" fill-rule="evenodd"/></svg>
